X: 12
T: Gráinne's
C: Tommy Peoples
Z: UPipes & harp
S: https://thesession.org/tunes/488#setting46632
R: jig
M: 6/8
L: 1/8
K: Gmaj
|:B|dBA BGE|DGE DFE|FcB ABA|FED cBA|
BdB GFG|EGE DEG|DGc BDF|AGF G2:|
|:A|~B2 A Ggf|eBc ADE|~F2 A fef|edc d2c|
BdB Ggf|ecA DFA|DGc BDF|AGF G2:|
|:D|GBd gfg|edB cBA|BdB a2g|fdB d2f|
gdB Ggf|ecA ~E2 c|DGc BDF|AGF G2:|

